hosted_logos/devspace.svg

<svg xmlns="http://www.w3.org/2000/svg" role="img" viewBox="-23.98 -23.98 1246.96 1136.96"><path fill="#00BDFF" fill-rule="evenodd" d="M234.713 251.289c-35.845 19.016-120.856 77.587-133.724 209.936-6.665 68.965 20.449 133.365 78.577 186.609 43.089 39.345 88.467 59.153 93.126 61.187 5.568 2.049 358.633 1.985 539.307 1.952 19.896-.004 37.701-.007 52.721-.007 82.947-26.116 148.66-66.933 188.18-119.165 35.84-47.411 51.69-103.444 45.95-162.521-4.6-47.666-23.21-92.798-50.55-130.07-31.94-53.068-116.949-93.049-159.454-97.615C829.797 79.641 753.516 6.875 669.653.536c-68.01-5.327-127.516 29.917-168.184 65.922-18.381 16.478-33.086 32.96-42.968 45.889a41.18 41.18 0 0 1-1.315-.62c-.824-.4-1.708-.829-2.592-1.153-31.934-13.439-90.065-24.339-139.925 3.044-53.763 29.411-71.458 88.487-76.971 132.604-.231 2.278-1.379 4.311-2.985 5.067zm57.649 32.614c-31.655 15.976-106.729 59.402-118.093 170.59-5.886 57.939 6.498 112.042 57.832 156.773 38.052 33.054 66.566 38.135 70.68 39.844 4.917 1.721 316.715 1.667 476.27 1.64 17.57-.003 33.293-.006 46.558-.006 73.251-21.941 125.5-44.671 160.4-88.552 31.651-39.831 45.651-81.124 40.581-130.756-4.06-40.045-26.27-77.961-50.42-109.274-28.21-44.583-97.499-66.611-135.036-70.447C788.987 151.259 733.183 78.567 659.122 73.241c-60.06-4.475-106.83 25.134-142.745 55.382-16.232 13.844-34.999 39.252-43.726 50.113a37.64 37.64 0 0 1-1.161-.521c-.727-.336-1.508-.696-2.289-.969-28.201-11.289-79.537-26.227-123.569-3.223-47.479 24.709-45.765 68.56-50.634 105.623-.204 1.914-1.217 3.621-2.636 4.257z" clip-rule="evenodd"/><path fill="#00BDFF" d="M500.565 398.076l-130.636 66.405v75.213L566.46 436.022c17.342-9.044 17.342-66.848 0-75.892L369.929 256.458v75.213l130.636 66.405zm343.352 170.52c5.78-23.121 5.78-34.682 0-57.803H588.181c-5.839 22.892-5.839 34.338 0 57.803h255.736zM0 859.677h73.895c20.348 0 36.413 1.607 48.193 4.82 11.78 3.034 20.437 8.389 25.97 16.064 5.534 7.675 8.3 18.295 8.3 31.861v70.682c0 13.208-2.588 23.476-7.764 30.786-5.176 7.14-13.655 12.23-25.435 15.26-11.781 2.86-28.113 4.29-48.996 4.29H0V859.677zm72.289 144.043c11.423 0 19.99-.45 25.703-1.34 5.89-1.07 10.084-3.033 12.583-5.889 2.678-2.856 4.016-7.318 4.016-13.387v-71.486c0-8.21-3.302-13.922-9.906-17.135-6.426-3.391-16.778-5.087-31.057-5.087H41.767v114.324h30.522zm181.247 32.4c-45.872 0-68.808-14.02-68.808-42.039v-46.586c0-16.243 5.176-28.023 15.529-35.341 10.531-7.318 26.684-10.977 48.46-10.977 20.526 0 35.52 3.569 44.98 10.709 9.638 6.961 14.457 18.831 14.457 35.609v31.593h-84.069v11.78c0 7.497 2.677 12.852 8.032 16.062 5.355 3.22 14.994 4.82 28.916 4.82 12.851 0 27.309-1.87 43.373-5.62v24.9c-15.886 3.39-32.842 5.09-50.87 5.09zm17.403-79.254v-18.742c0-4.284-1.785-7.496-5.355-9.638-3.391-2.142-9.192-3.213-17.403-3.213-9.46 0-15.796 1.071-19.009 3.213-3.391 2.32-5.087 5.533-5.087 9.638v18.742h46.854zm49.958-53.012h41.499l28.38 89.692 27.31-89.692h39.357l-47.657 129.586h-39.625l-49.264-129.586zm211.449 132.266c-16.599 0-37.126-1.61-61.579-4.82v-31.864c30.343 4.644 51.048 6.964 62.115 6.964 23.204 0 34.806-5.98 34.806-17.941v-11.245c0-5.712-1.696-10.085-5.087-13.119-3.213-3.035-9.103-4.552-17.671-4.552h-20.348c-38.197 0-57.296-15.172-57.296-45.515v-12.851c0-15.172 6.337-26.328 19.01-33.468C498.968 860.57 519.049 857 546.536 857c14.28 0 32.396 1.16 54.351 3.481v31.057c-26.952-3.213-45.515-4.819-55.689-4.819-14.101 0-23.561 1.16-28.38 3.48-5.177 2.499-7.765 6.426-7.765 11.781v12.316c0 9.103 7.675 13.654 23.026 13.654h20.883c19.813 0 34.181 3.659 43.106 10.977 8.924 7.319 13.386 18.474 13.386 33.468v11.512c0 20.703-7.407 34.713-22.222 42.033-7.139 3.75-15.082 6.34-23.828 7.77-8.568 1.6-18.92 2.41-31.058 2.41zm104.537-132.266h36.948v12.851c2.32-5.711 6.871-9.727 13.654-12.048 6.783-2.32 16.868-3.48 30.254-3.48 11.245 0 20.259.892 27.042 2.677 6.961 1.785 12.226 4.641 15.796 8.568 3.392 3.926 5.712 8.299 6.961 13.119 1.25 4.64 1.874 11.066 1.874 19.277v42.57c0 12.852-1.873 22.762-5.622 29.722-3.748 6.96-9.549 11.87-17.403 14.72-7.675 2.86-18.206 4.29-31.593 4.29-12.851 0-22.133-1.08-27.844-3.22-5.712-2.14-9.371-6.33-10.978-12.58v68.81h-39.089V903.854zm65.863 107.896c7.675 0 13.476-.53 17.403-1.6 3.927-1.08 6.604-2.95 8.032-5.63 1.428-2.67 2.142-6.69 2.142-12.045V944.55c0-5.89-.625-10.085-1.874-12.584-1.25-2.677-3.748-4.462-7.497-5.354-3.748-.893-9.906-1.339-18.474-1.339-7.318 0-12.94.625-16.867 1.874-3.748 1.249-6.336 3.213-7.764 5.89-1.25 2.678-1.875 6.515-1.875 11.513v47.925c0 5.355.625 9.375 1.875 12.045 1.428 2.68 4.016 4.55 7.764 5.63 3.748 1.07 9.46 1.6 17.135 1.6zm133.969 24.37c-12.137 0-21.241-1.08-27.309-3.22-5.89-2.32-10.085-6.33-12.584-12.05-2.32-5.89-3.48-14.63-3.48-26.233 0-10.353 1.249-18.474 3.748-24.364 2.677-5.891 6.872-10.085 12.584-12.584 5.89-2.677 13.922-4.016 24.096-4.016h43.909v-8.835c0-5.534-.804-9.639-2.41-12.316-1.428-2.678-4.195-4.552-8.3-5.623-3.927-1.071-9.906-1.606-17.938-1.606-11.067 0-26.239 1.071-45.516 3.213v-24.632c14.101-1.785 30.612-2.677 49.532-2.677 16.599 0 29.362 1.249 38.286 3.748 9.103 2.499 15.618 6.783 19.545 12.851 3.927 6.069 5.89 14.904 5.89 26.506v89.158h-38.286v-11.78c-3.035 5.17-7.14 8.83-12.316 10.98-5.176 2.32-14.993 3.48-29.451 3.48zm15.261-24.37c7.853 0 13.476-.27 16.867-.8 2.499-.36 4.195-.89 5.087-1.61 1.071-.71 1.964-1.87 2.678-3.48.714-1.25 1.071-3.12 1.071-5.62v-25.168h-26.774c-6.069 0-10.353.446-12.851 1.339-2.499.714-4.195 2.32-5.087 4.819-.893 2.32-1.339 6.515-1.339 12.583 0 5.891.446 9.997 1.339 12.317.892 2.32 2.588 3.84 5.087 4.55 2.677.71 7.318 1.07 13.922 1.07zm162.374 24.37c-6.79 0-12.14-.18-16.069-.54-3.926-.18-8.746-.62-14.457-1.34-5.712-.71-10.442-1.96-14.19-3.75-3.57-1.78-7.319-4.46-11.245-8.03-7.319-6.07-10.978-16.42-10.978-31.056v-43.106c0-11.78 2.678-21.597 8.033-29.451 1.963-2.856 4.819-5.444 8.567-7.764 3.927-2.499 7.854-4.462 11.781-5.89 3.212-1.071 7.496-1.964 12.851-2.678s10.085-1.16 14.187-1.338h14.19c10 0 23.12 1.606 39.36 4.819v25.703c-18.38-4.284-32.49-6.426-42.3-6.426-18.03 0-27.044 6.069-27.044 18.206v47.657c0 13.744 9.907 20.614 29.724 20.614 9.63 0 23.47-1.96 41.49-5.89v25.7c-16.24 3.04-30.87 4.56-43.9 4.56zm131.03 0c-45.87 0-68.81-14.02-68.81-42.039v-46.586c0-16.243 5.18-28.023 15.53-35.341 10.53-7.318 26.69-10.977 48.46-10.977 20.53 0 35.52 3.569 44.98 10.709 9.64 6.961 14.46 18.831 14.46 35.609v31.593h-84.07v11.78c0 7.497 2.68 12.852 8.03 16.062 5.36 3.22 15 4.82 28.92 4.82 12.85 0 27.31-1.87 43.37-5.62v24.9c-15.88 3.39-32.84 5.09-50.87 5.09zm17.4-79.254v-18.742c0-4.284-1.78-7.496-5.35-9.638-3.39-2.142-9.19-3.213-17.4-3.213-9.46 0-15.8 1.071-19.01 3.213-3.39 2.32-5.09 5.533-5.09 9.638v18.742h46.85z"/></svg>

<svg width="1200" height="1090" viewBox="0 0 1200 1090" fill="none" xmlns="http://www.w3.org/2000/svg">
<path fill-rule="evenodd" clip-rule="evenodd" d="M234.713 251.289C198.868 270.305 113.857 328.876 100.989 461.225C94.3239 530.19 121.438 594.59 179.566 647.834C222.655 687.179 268.033 706.987 272.692 709.021C278.26 711.07 631.325 711.006 811.999 710.973C831.895 710.969 849.7 710.966 864.72 710.966C947.667 684.85 1013.38 644.033 1052.9 591.801C1088.74 544.39 1104.59 488.357 1098.85 429.28C1094.25 381.614 1075.64 336.482 1048.3 299.21C1016.36 246.142 931.351 206.161 888.846 201.595C829.797 79.6412 753.516 6.8752 669.653 0.536434C601.643 -4.79059 542.137 30.4531 501.469 66.4578C483.088 82.9359 468.383 99.4184 458.501 112.347C458.089 112.165 457.647 111.951 457.186 111.727C456.362 111.327 455.478 110.898 454.594 110.574C422.66 97.1354 364.529 86.2351 314.669 113.618C260.906 143.029 243.211 202.105 237.698 246.222C237.467 248.5 236.319 250.533 234.713 251.289ZM292.362 283.903C260.707 299.879 185.633 343.305 174.269 454.493C168.383 512.432 180.767 566.535 232.101 611.266C270.153 644.32 298.667 649.401 302.781 651.11C307.698 652.831 619.496 652.777 779.051 652.75C796.621 652.747 812.344 652.744 825.609 652.744C898.86 630.803 951.109 608.073 986.009 564.192C1017.66 524.361 1031.66 483.068 1026.59 433.436C1022.53 393.391 1000.32 355.475 976.17 324.162C947.96 279.579 878.671 257.551 841.134 253.715C788.987 151.259 733.183 78.5667 659.122 73.2414C599.062 68.7661 552.292 98.3749 516.377 128.623C500.145 142.467 481.378 167.875 472.651 178.736C472.287 178.583 471.897 178.403 471.49 178.215C470.763 177.879 469.982 177.519 469.201 177.246C441 165.957 389.664 151.019 345.632 174.023C298.153 198.732 299.867 242.583 294.998 279.646C294.794 281.56 293.781 283.267 292.362 283.903Z" fill="#00BDFF"/>
<path d="M500.565 398.076L369.929 464.481V539.694L566.46 436.022C583.802 426.978 583.802 369.174 566.46 360.13L369.929 256.458V331.671L500.565 398.076Z" fill="#00BDFF"/>
<path d="M843.917 568.596C849.697 545.475 849.697 533.914 843.917 510.793H588.181C582.342 533.685 582.342 545.131 588.181 568.596H843.917Z" fill="#00BDFF"/>
<path d="M0 859.677H73.8953C94.2433 859.677 110.308 861.284 122.088 864.497C133.868 867.531 142.525 872.886 148.058 880.561C153.592 888.236 156.358 898.856 156.358 912.422V983.104C156.358 996.312 153.77 1006.58 148.594 1013.89C143.418 1021.03 134.939 1026.12 123.159 1029.15C111.378 1032.01 95.0465 1033.44 74.163 1033.44H0V859.677ZM72.2889 1003.72C83.7123 1003.72 92.2799 1003.27 97.9917 1002.38C103.882 1001.31 108.076 999.347 110.575 996.491C113.253 993.635 114.591 989.173 114.591 983.104V911.618C114.591 903.408 111.289 897.696 104.685 894.483C98.2594 891.092 87.9069 889.396 73.6276 889.396H41.7669V1003.72H72.2889Z" fill="#00BDFF"/>
<path d="M253.536 1036.12C207.664 1036.12 184.728 1022.1 184.728 994.081V947.495C184.728 931.252 189.904 919.472 200.257 912.154C210.788 904.836 226.941 901.177 248.717 901.177C269.243 901.177 284.237 904.746 293.697 911.886C303.335 918.847 308.154 930.717 308.154 947.495V979.088H224.085V990.868C224.085 998.365 226.762 1003.72 232.117 1006.93C237.472 1010.15 247.111 1011.75 261.033 1011.75C273.884 1011.75 288.342 1009.88 304.406 1006.13V1031.03C288.52 1034.42 271.564 1036.12 253.536 1036.12ZM270.939 956.866V938.124C270.939 933.84 269.154 930.628 265.584 928.486C262.193 926.344 256.392 925.273 248.181 925.273C238.721 925.273 232.385 926.344 229.172 928.486C225.781 930.806 224.085 934.019 224.085 938.124V956.866H270.939Z" fill="#00BDFF"/>
<path d="M320.897 903.854H362.396L390.776 993.546L418.086 903.854H457.443L409.786 1033.44H370.161L320.897 903.854Z" fill="#00BDFF"/>
<path d="M532.346 1036.12C515.747 1036.12 495.22 1034.51 470.767 1031.3V999.436C501.11 1004.08 521.815 1006.4 532.882 1006.4C556.086 1006.4 567.688 1000.42 567.688 988.459V977.214C567.688 971.502 565.992 967.129 562.601 964.095C559.388 961.06 553.498 959.543 544.93 959.543H524.582C486.385 959.543 467.286 944.371 467.286 914.028V901.177C467.286 886.005 473.623 874.849 486.296 867.709C498.968 860.57 519.049 857 546.536 857C560.816 857 578.932 858.16 600.887 860.481V891.538C573.935 888.325 555.372 886.719 545.198 886.719C531.097 886.719 521.637 887.879 516.818 890.199C511.641 892.698 509.053 896.625 509.053 901.98V914.296C509.053 923.399 516.728 927.95 532.079 927.95H552.962C572.775 927.95 587.143 931.609 596.068 938.927C604.992 946.246 609.454 957.401 609.454 972.395V983.907C609.454 1004.61 602.047 1018.62 587.232 1025.94C580.093 1029.69 572.15 1032.28 563.404 1033.71C554.836 1035.31 544.484 1036.12 532.346 1036.12Z" fill="#00BDFF"/>
<path d="M636.883 903.854H673.831V916.705C676.151 910.994 680.702 906.978 687.485 904.657C694.268 902.337 704.353 901.177 717.739 901.177C728.984 901.177 737.998 902.069 744.781 903.854C751.742 905.639 757.007 908.495 760.577 912.422C763.969 916.348 766.289 920.721 767.538 925.541C768.788 930.181 769.412 936.607 769.412 944.818V987.388C769.412 1000.24 767.539 1010.15 763.79 1017.11C760.042 1024.07 754.241 1028.98 746.387 1031.83C738.712 1034.69 728.181 1036.12 714.794 1036.12C701.943 1036.12 692.661 1035.04 686.95 1032.9C681.238 1030.76 677.579 1026.57 675.972 1020.32V1089.13H636.883V903.854ZM702.746 1011.75C710.421 1011.75 716.222 1011.22 720.149 1010.15C724.076 1009.07 726.753 1007.2 728.181 1004.52C729.609 1001.85 730.323 997.83 730.323 992.475V944.55C730.323 938.66 729.698 934.465 728.449 931.966C727.199 929.289 724.701 927.504 720.952 926.612C717.204 925.719 711.046 925.273 702.478 925.273C695.16 925.273 689.538 925.898 685.611 927.147C681.863 928.396 679.275 930.36 677.847 933.037C676.597 935.715 675.972 939.552 675.972 944.55V992.475C675.972 997.83 676.597 1001.85 677.847 1004.52C679.275 1007.2 681.863 1009.07 685.611 1010.15C689.359 1011.22 695.071 1011.75 702.746 1011.75Z" fill="#00BDFF"/>
<path d="M836.715 1036.12C824.578 1036.12 815.474 1035.04 809.406 1032.9C803.516 1030.58 799.321 1026.57 796.822 1020.85C794.502 1014.96 793.342 1006.22 793.342 994.617C793.342 984.264 794.591 976.143 797.09 970.253C799.767 964.362 803.962 960.168 809.674 957.669C815.564 954.992 823.596 953.653 833.77 953.653H877.679V944.818C877.679 939.284 876.875 935.179 875.269 932.502C873.841 929.824 871.074 927.95 866.969 926.879C863.042 925.808 857.063 925.273 849.031 925.273C837.964 925.273 822.792 926.344 803.515 928.486V903.854C817.616 902.069 834.127 901.177 853.047 901.177C869.646 901.177 882.409 902.426 891.333 904.925C900.436 907.424 906.951 911.708 910.878 917.776C914.805 923.845 916.768 932.68 916.768 944.282V1033.44H878.482V1021.66C875.447 1026.83 871.342 1030.49 866.166 1032.64C860.99 1034.96 851.173 1036.12 836.715 1036.12ZM851.976 1011.75C859.829 1011.75 865.452 1011.48 868.843 1010.95C871.342 1010.59 873.038 1010.06 873.93 1009.34C875.001 1008.63 875.894 1007.47 876.608 1005.86C877.322 1004.61 877.679 1002.74 877.679 1000.24V975.072H850.905C844.836 975.072 840.552 975.518 838.054 976.411C835.555 977.125 833.859 978.731 832.967 981.23C832.074 983.55 831.628 987.745 831.628 993.813C831.628 999.704 832.074 1003.81 832.967 1006.13C833.859 1008.45 835.555 1009.97 838.054 1010.68C840.731 1011.39 845.372 1011.75 851.976 1011.75Z" fill="#00BDFF"/>
<path d="M1014.35 1036.12C1007.56 1036.12 1002.21 1035.94 998.281 1035.58C994.355 1035.4 989.535 1034.96 983.824 1034.24C978.112 1033.53 973.382 1032.28 969.634 1030.49C966.064 1028.71 962.315 1026.03 958.389 1022.46C951.07 1016.39 947.411 1006.04 947.411 991.404V948.298C947.411 936.518 950.089 926.701 955.444 918.847C957.407 915.991 960.263 913.403 964.011 911.083C967.938 908.584 971.865 906.621 975.792 905.193C979.004 904.122 983.288 903.229 988.643 902.515C993.998 901.801 998.728 901.355 1002.83 901.177H1017.02C1027.02 901.177 1040.14 902.783 1056.38 905.996V931.699C1038 927.415 1023.89 925.273 1014.08 925.273C996.05 925.273 987.036 931.342 987.036 943.479V991.136C987.036 1004.88 996.943 1011.75 1016.76 1011.75C1026.39 1011.75 1040.23 1009.79 1058.25 1005.86V1031.56C1042.01 1034.6 1027.38 1036.12 1014.35 1036.12Z" fill="#00BDFF"/>
<path d="M1145.38 1036.12C1099.51 1036.12 1076.57 1022.1 1076.57 994.081V947.495C1076.57 931.252 1081.75 919.472 1092.1 912.154C1102.63 904.836 1118.79 901.177 1140.56 901.177C1161.09 901.177 1176.08 904.746 1185.54 911.886C1195.18 918.847 1200 930.717 1200 947.495V979.088H1115.93V990.868C1115.93 998.365 1118.61 1003.72 1123.96 1006.93C1129.32 1010.15 1138.96 1011.75 1152.88 1011.75C1165.73 1011.75 1180.19 1009.88 1196.25 1006.13V1031.03C1180.37 1034.42 1163.41 1036.12 1145.38 1036.12ZM1162.78 956.866V938.124C1162.78 933.84 1161 930.628 1157.43 928.486C1154.04 926.344 1148.24 925.273 1140.03 925.273C1130.57 925.273 1124.23 926.344 1121.02 928.486C1117.63 930.806 1115.93 934.019 1115.93 938.124V956.866H1162.78Z" fill="#00BDFF"/>
</svg>
